src/topics/icons/susy.svg

<svg height="228" preserveAspectRatio="xMidYMid" viewBox="0 0 256 228" width="256" xmlns="http://www.w3.org/2000/svg"><path d="m0 110.557792v-3.218924c12.545937-10.6462694 28.0432579-25.500961 39.6048077-38.1280044l5.9036567 3.9613252c-6.6411694 11.8848643-16.2348336 24.7587822-25.5827344 34.4148872 14.7598083 18.56892 15.4973209 19.560196 25.0909852 35.406163l-5.4119075 3.961325c-5.4119075-5.693891-7.8715422-8.418621-15.4973209-15.349774-8.8559294-8.419732-7.8726532-7.182249-20.66346488-18.075837l-3.44402192-2.970939zm50.2044135 57.552209 10.5098332-5.253695c19.7046317 29.879373 50.9050393 50.565281 75.8646983 50.565281 23.974828 0 41.053835-17.074562 41.053835-41.371593 0-23.968384-13.794309-36.117011-53.533109-46.951936-47.2923603-12.805922-65.3559764-30.2080212-65.3559764-64.0264988 0-33.8193664 26.273583-61.0715592 58.4588224-61.0715592 8.867706 0 8.210189 0 28.901652 6.23852606 2.955162.98505382 6.897155 1.64234892 8.538393 1.64234892 2.298755 0 5.58323-.98505382 8.539503-2.29875519l11.165351-5.58123095 20.362149 56.80291856-10.509834 6.8949323c-19.048225-31.5208334-43.351478-49.5802275-66.996992-49.5802275-20.6905743 0-36.1261211 15.4322136-36.1261211 36.4467692 0 20.6847969 14.122512 34.1480139 43.3514791 41.6993525 14.122512 3.6122344 24.303253 6.5673958 29.229855 7.8799861 29.558059 8.864818 47.293472 32.178129 47.293472 61.400207 0 37.102953-28.572338 65.997495-64.699348 65.997495-11.166462 0-16.749471-1.313702-30.542891-7.552228-5.9114337-2.627402-9.5241124-3.611345-11.8228676-3.611345-3.2844757 0-5.5832309.985054-9.5241128 3.283587l-12.4792742 7.879986-21.6782947-59.432321zm161.0246345-25.115873c9.593887-16.094397 10.085636-16.836576 24.845666-35.406607-9.3479-9.6561056-18.941787-22.5304679-25.583178-34.4153322l6.148753-3.9613252c11.316898 12.6272656 26.321803 26.9868749 39.359711 38.1284494v3.219146l-12.546159 10.398506c-4.673506 3.962436-18.203164 16.836577-27.058426 25.997599l-5.166144-3.960214z" fill="#ff0080"/></svg>

<?xml version="1.0" encoding="UTF-8" standalone="no"?>
<svg width="256px" height="228px" viewBox="0 0 256 228" version="1.1" xmlns="http://www.w3.org/2000/svg" xmlns:xlink="http://www.w3.org/1999/xlink" preserveAspectRatio="xMidYMid">
    <g>
        <path d="M0,110.557792 L0,107.338868 C12.545937,96.6925986 28.0432579,81.837907 39.6048077,69.2108636 L45.5084644,73.1721888 C38.867295,85.0570531 29.2736308,97.930971 19.92573,107.587076 C34.6855383,126.155996 35.4230509,127.147272 45.0167152,142.993239 L39.6048077,146.954564 C34.1929002,141.260673 31.7332655,138.535943 24.1074868,131.60479 C15.2515574,123.185058 16.2348336,124.422541 3.44402192,113.528953 L0,110.558014 L0,110.557792 L0,110.557792 Z M50.2044135,168.110001 L60.7142467,162.856306 C80.4188784,192.735679 111.619286,213.421587 136.578945,213.421587 C160.553773,213.421587 177.63278,196.347025 177.63278,172.049994 C177.63278,148.08161 163.838471,135.932983 124.099671,125.098058 C76.8073107,112.292136 58.7436946,94.8900368 58.7436946,61.0715592 C58.7436946,27.2521928 85.0172776,0 117.202517,0 C126.070223,0 125.412706,0 146.104169,6.23852606 C149.059331,7.22357988 153.001324,7.88087498 154.642562,7.88087498 C156.941317,7.88087498 160.225792,6.89582116 163.182065,5.58211979 L174.347416,0.000888837194 L194.709565,56.8038074 L184.199731,63.6987397 C165.151506,32.1779063 140.848253,14.1185122 117.202739,14.1185122 C96.5121647,14.1185122 81.0766179,29.5507258 81.0766179,50.5652814 C81.0766179,71.2500783 95.1991299,84.7132953 124.428097,92.2646339 C138.550609,95.8768683 148.73135,98.8320297 153.657952,100.14462 C183.216011,109.009438 200.951424,132.322749 200.951424,161.544827 C200.951424,198.64778 172.379086,227.542322 136.252076,227.542322 C125.085614,227.542322 119.502605,226.22862 105.709185,219.990094 C99.7977513,217.362692 96.1850726,216.378749 93.8863174,216.378749 C90.6018417,216.378749 88.3030865,217.363803 84.3622046,219.662336 L71.8829304,227.542322 L50.2046357,168.110001 L50.2044135,168.110001 L50.2044135,168.110001 Z M211.229048,142.994128 C220.822935,126.899731 221.314684,126.157552 236.074714,107.587521 C226.726814,97.9314154 217.132927,85.0570531 210.491536,73.1721888 L216.640289,69.2108636 C227.957187,81.8381292 242.962092,96.1977385 256,107.339313 L256,110.558459 L243.453841,120.956965 C238.780335,124.919401 225.250677,137.793542 216.395415,146.954564 L211.229271,142.99435 L211.229048,142.994128 L211.229048,142.994128 Z" fill="#FF0080"></path>
    </g>
</svg>
